src/pos-icons/label.svg

<svg height="24" viewBox="0 0 24 24" width="24" xmlns="http://www.w3.org/2000/svg"><path d="m17.63 5.84c-.36-.51-.96-.84-1.63-.84h-11a2 2 0 0 0 -2 2v10a2 2 0 0 0 2 2h11c.67 0 1.27-.34 1.63-.85l4.37-6.15z"/></svg>

<?xml version="1.0" encoding="UTF-8"?><!DOCTYPE svg PUBLIC "-//W3C//DTD SVG 1.1//EN" "http://www.w3.org/Graphics/SVG/1.1/DTD/svg11.dtd"><svg xmlns="http://www.w3.org/2000/svg" xmlns:xlink="http://www.w3.org/1999/xlink" version="1.1" id="mdi-label" width="24" height="24" viewBox="0 0 24 24"><path d="M17.63,5.84C17.27,5.33 16.67,5 16,5H5A2,2 0 0,0 3,7V17A2,2 0 0,0 5,19H16C16.67,19 17.27,18.66 17.63,18.15L22,12L17.63,5.84Z" /></svg>
